!!!OTL: Yiujiang
!!!ARE: Asia, China,ÿHubei, Zigui
!! I, 467
!!!SCT: C1463
!!!YEM: Copyright 1995, estate of Helmut Schaffrath.
**kern
*ICvox
*Ivox
*M4/4
*k[]
*C:
{16ee
16ee
4.ee
8dd
16ee
16dd
8cc
8a
=1
2ee
8dd
8cc
4a}
=2
{8ee
8dd
4ee
8dd
16ee
16dd
8cc
8dd
=3
2cc
8dd
8cc
4a}
=4
{4a
4cc
8dd
8dd
4a
=5
2cc
8dd
8cc
4a}
=6
{8ee
8ee
4ee
8dd
16ee
16dd
8cc
8a
=7
2ee
8dd
8cc
4a}
=8
{4a
4cc
8dd
8dd
4a
=9
2cc
8dd
8cc
4a}
=10
{8dd
8dd
4ee
8dd
16ee
16dd
8cc
8dd
=11
2cc
8dd
8cc
4a}
=12
{4a
4cc
8dd
8dd
4a
=13
2cc
8dd
8cc
4a}
=14
{8dd
8dd
4ee
8dd
16ee
16dd
8cc
8a
=15
2ee
8dd
8cc
4a}
=16
{4ee
4dd
8dd
16ee
16dd
8cc
8dd
=17
2cc
8dd
8cc
4a}
=18
{4a
4cc
8dd
8dd
4a
=19
2cc
8dd
8cc
4a}
=20
{8dd
8dd
4ee
8dd
16ee
16dd
8cc
8a
=21
2ee
8dd
8cc
4a}
=22
{4ee
4dd
8dd
16ee
16dd
8cc
8dd
=23
2cc
8dd
8cc
4a}
=24
{4a
4cc
8dd
4.dd
=25
2cc
8dd
8cc
4a}
=26
{4a
4cc
8dd
4.dd
=27
2cc
8dd
8cc
4a}
==
!!!AGN: Xiaodiao, Fengsuge, Longchuanqu
!!!ONB: ESAC (Essen Associative Code) Database: HUANG
!!!AMT: simple quadruple
!!!AIN: vox
!!!EED: Helmut Schaffrath
!!!EEV: 1.0
*-
